app/icons/bot.svg

<svg xmlns="http://www.w3.org/2000/svg" xmlns:xlink="http://www.w3.org/1999/xlink" width="30"
  height="30" viewBox="0 0 30 30" fill="none">
  <defs>
    <rect id="path_0" x="0" y="0" width="29.999999999999996" height="29.999999999999996" />
    <rect id="path_1" x="0" y="0" width="20.45454545454545" height="20.45454545454545" />
  </defs>
  <g opacity="1" transform="translate(0 0)  rotate(0 14.999999999999998 14.999999999999998)">
    <rect fill="#E7F8FF" opacity="1"
      transform="translate(0 0)  rotate(0 14.999999999999998 14.999999999999998)" x="0" y="0"
      width="29.999999999999996" height="29.999999999999996" rx="10" />
    <mask id="bg-mask-0" fill="white">
      <use xlink:href="#path_0"></use>
    </mask>
    <g mask="url(#bg-mask-0)">
      <g opacity="1"
        transform="translate(4.772727272727272 4.772727272727273)  rotate(0 10.227272727272725 10.227272727272725)">
        <mask id="bg-mask-1" fill="white">
          <use xlink:href="#path_1"></use>
        </mask>
        <g mask="url(#bg-mask-1)">
          <path id="分组 1" fill-rule="evenodd" style="fill:#1F948C"
            transform="translate(0 0)  rotate(0 10.227272727272725 10.227272727272725)" opacity="1"
            d="M19.11 8.37L19.11 8.37C19.28 7.85 19.37 7.31 19.37 6.76C19.37 5.86 19.13 4.97 18.66 4.19C17.73 2.59 16 1.6 14.13 1.6C13.76 1.6 13.4 1.64 13.04 1.71C12.06 0.62 10.65 0 9.17 0L9.14 0L9.13 0C6.86 0 4.86 1.44 4.16 3.57C2.7 3.86 1.44 4.76 0.71 6.04C0.24 6.83 0 7.72 0 8.63C0 9.9 0.48 11.14 1.35 12.08C1.17 12.6 1.08 13.15 1.08 13.69C1.08 14.6 1.33 15.49 1.79 16.27C2.92 18.21 5.2 19.21 7.42 18.74C8.4 19.83 9.8 20.45 11.28 20.45L11.31 20.45L11.33 20.45C13.59 20.45 15.6 19.01 16.3 16.88C17.76 16.59 19.01 15.69 19.75 14.41C20.21 13.63 20.45 12.74 20.45 11.83C20.45 10.55 19.97 9.32 19.11 8.37Z M8.94734 18.1579C8.90734 18.1879 8.86734 18.2079 8.82734 18.2279C9.52734 18.8079 10.3973 19.1179 11.3073 19.1179L11.3173 19.1179C13.4573 19.1179 15.1973 17.3979 15.1973 15.2879L15.1973 10.5279C15.1973 10.5079 15.1773 10.4879 15.1573 10.4779L13.4173 9.48792L13.4173 15.2379C13.4173 15.4679 13.2873 15.6879 13.0773 15.8079L8.94734 18.1579Z M8.27654 17.0048L12.4465 14.6248C12.4665 14.6148 12.4765 14.5948 12.4765 14.5748L12.4765 14.5748L12.4765 12.5848L7.43654 15.4548C7.22654 15.5748 6.96654 15.5748 6.75654 15.4548L2.62654 13.1048C2.58654 13.0848 2.53654 13.0448 2.50654 13.0348C2.46654 13.2448 2.44654 13.4648 2.44654 13.6848C2.44654 14.3548 2.62654 15.0148 2.96654 15.6048L2.96654 15.5948C3.66654 16.7848 4.94654 17.5148 6.33654 17.5148C7.01654 17.5148 7.68654 17.3348 8.27654 17.0048Z M3.90324 5.16818C3.90324 5.12818 3.90324 5.06818 3.90324 5.02818C3.05324 5.33818 2.33324 5.92818 1.88324 6.70818L1.88324 6.70818C1.54324 7.28818 1.36324 7.94818 1.36324 8.61818C1.36324 9.98818 2.10324 11.2582 3.30324 11.9482L7.47324 14.3182C7.49324 14.3282 7.51324 14.3282 7.53324 14.3182L9.28324 13.3182L4.24324 10.4482C4.03324 10.3382 3.90324 10.1182 3.90324 9.87818L3.90324 9.87818L3.90324 5.16818Z M17.1561 8.50521L12.9761 6.1252C12.9561 6.1252 12.9361 6.1252 12.9161 6.1352L11.1761 7.1252L16.2161 9.9952C16.4261 10.1152 16.5561 10.3352 16.5561 10.5752C16.5561 10.5752 16.5561 10.5752 16.5561 10.5752L16.5561 15.4252C18.0761 14.8652 19.0961 13.4352 19.0961 11.8252C19.0961 10.4552 18.3561 9.1952 17.1561 8.50521Z M8.01418 5.82927C7.99418 5.83927 7.98418 5.85927 7.98418 5.87927L7.98418 5.87927L7.98418 7.86927L13.0242 4.99927C13.1242 4.93927 13.2442 4.90927 13.3642 4.90927C13.4842 4.90927 13.5942 4.93927 13.7042 4.99927L17.8342 7.34927C17.8742 7.36927 17.9142 7.39927 17.9542 7.41927L17.9542 7.41927C17.9842 7.20927 18.0042 6.98927 18.0042 6.76927C18.0042 4.65927 16.2642 2.93927 14.1242 2.93927C13.4442 2.93927 12.7742 3.11927 12.1842 3.44927L8.01418 5.82927Z M9.14676 1.33731C6.99676 1.33731 5.25676 3.05731 5.25676 5.16731L5.25676 9.92731C5.25676 9.94731 5.27676 9.95731 5.28676 9.96731L7.03676 10.9673L7.03676 5.22731L7.03676 5.21731C7.03676 4.98731 7.16676 4.76731 7.37676 4.64731L11.5068 2.29731C11.5468 2.26731 11.5968 2.23731 11.6268 2.22731C10.9268 1.64731 10.0468 1.33731 9.14676 1.33731Z M7.98345 11.5093L10.2235 12.7793L12.4735 11.5093L12.4735 8.9493L10.2235 7.6693L7.98345 8.9493L7.98345 11.5093Z " />
        </g>
      </g>
    </g>
  </g>
</svg>

<?xml version="1.0" encoding="utf-8"?>
<!-- Generator: Adobe Illustrator 27.0.0, SVG Export Plug-In . SVG Version: 6.00 Build 0)  -->
<svg version="1.1" id="图层_1" xmlns="http://www.w3.org/2000/svg" xmlns:xlink="http://www.w3.org/1999/xlink" x="0px" y="0px"
	 viewBox="0 0 30 30" style="enable-background:new 0 0 30 30;" xml:space="preserve">
<style type="text/css">
	.st0{fill:#F6E7FF;}
	.st1{filter:url(#Adobe_OpacityMaskFilter);}
	.st2{fill:#FFFFFF;}
	.st3{mask:url(#bg-mask-0_00000104687323937481082660000004156669896998719886_);}
	.st4{filter:url(#Adobe_OpacityMaskFilter_00000011740883685337972450000011030741170327820167_);}
	.st5{mask:url(#bg-mask-1_00000146460199214459221580000017666801686026390669_);}
	.st6{fill-rule:evenodd;clip-rule:evenodd;fill:#913BD2;}
</style>
<g transform="translate(0 0)  rotate(0 14.999999999999998 14.999999999999998)">
	<path class="st0" d="M10,0h10c5.5,0,10,4.5,10,10v10c0,5.5-4.5,10-10,10H10C4.5,30,0,25.5,0,20V10C0,4.5,4.5,0,10,0z"/>
	<defs>
		<filter id="Adobe_OpacityMaskFilter" filterUnits="userSpaceOnUse" x="4.8" y="4.8" width="20.5" height="20.5">
			<feColorMatrix  type="matrix" values="1 0 0 0 0  0 1 0 0 0  0 0 1 0 0  0 0 0 1 0"/>
		</filter>
	</defs>
	
		<mask maskUnits="userSpaceOnUse" x="4.8" y="4.8" width="20.5" height="20.5" id="bg-mask-0_00000104687323937481082660000004156669896998719886_">
		<g class="st1">
			<rect id="path_0_00000022550344086800992840000014667579547137919661_" y="0" class="st2" width="30" height="30"/>
		</g>
	</mask>
	<g class="st3">
		<g transform="translate(4.772727272727272 4.772727272727273)  rotate(0 10.227272727272725 10.227272727272725)">
			<defs>
				
					<filter id="Adobe_OpacityMaskFilter_00000115481119019200450880000007786731179767599549_" filterUnits="userSpaceOnUse" x="0" y="0" width="20.5" height="20.5">
					<feColorMatrix  type="matrix" values="1 0 0 0 0  0 1 0 0 0  0 0 1 0 0  0 0 0 1 0"/>
				</filter>
			</defs>
			
				<mask maskUnits="userSpaceOnUse" x="0" y="0" width="20.5" height="20.5" id="bg-mask-1_00000146460199214459221580000017666801686026390669_">
				<g style="filter:url(#Adobe_OpacityMaskFilter_00000115481119019200450880000007786731179767599549_);">
					<rect id="path_1_00000039110303431061848540000002168987621419152820_" x="0" y="0" class="st2" width="20.5" height="20.5"/>
				</g>
			</mask>
			<g class="st5">
				<path id="分组_1" class="st6" d="M19.1,8.4L19.1,8.4c0.2-0.5,0.3-1.1,0.3-1.6c0-0.9-0.2-1.8-0.7-2.6c-0.9-1.6-2.7-2.6-4.5-2.6
					c-0.4,0-0.7,0-1.1,0.1C12.1,0.6,10.7,0,9.2,0h0h0c-2.3,0-4.3,1.4-5,3.6C2.7,3.9,1.4,4.8,0.7,6C0.2,6.8,0,7.7,0,8.6
					c0,1.3,0.5,2.5,1.4,3.4c-0.2,0.5-0.3,1.1-0.3,1.6c0,0.9,0.2,1.8,0.7,2.6c1.1,1.9,3.4,2.9,5.6,2.5c1,1.1,2.4,1.7,3.9,1.7h0h0
					c2.3,0,4.3-1.4,5-3.6c1.5-0.3,2.7-1.2,3.5-2.5c0.5-0.8,0.7-1.7,0.7-2.6C20.5,10.6,20,9.3,19.1,8.4z M8.9,18.2c0,0-0.1,0-0.1,0.1
					c0.7,0.6,1.6,0.9,2.5,0.9h0c2.1,0,3.9-1.7,3.9-3.8v-4.8c0,0,0,0,0-0.1l-1.7-1v5.7c0,0.2-0.1,0.4-0.3,0.6L8.9,18.2z M8.3,17
					l4.2-2.4c0,0,0,0,0-0.1l0,0v-2l-5,2.9c-0.2,0.1-0.5,0.1-0.7,0l-4.1-2.3c0,0-0.1-0.1-0.1-0.1c0,0.2-0.1,0.4-0.1,0.7
					c0,0.7,0.2,1.3,0.5,1.9v0c0.7,1.2,2,1.9,3.4,1.9C7,17.5,7.7,17.3,8.3,17z M3.9,5.2c0,0,0-0.1,0-0.1c-0.8,0.3-1.6,0.9-2,1.7l0,0
					C1.5,7.3,1.4,7.9,1.4,8.6c0,1.4,0.7,2.6,1.9,3.3l4.2,2.4c0,0,0,0,0.1,0l1.8-1l-5-2.9C4,10.3,3.9,10.1,3.9,9.9l0,0V5.2z
					 M17.2,8.5L13,6.1c0,0,0,0-0.1,0l-1.7,1l5,2.9c0.2,0.1,0.3,0.3,0.3,0.6l0,0v4.9c1.5-0.6,2.5-2,2.5-3.6
					C19.1,10.5,18.4,9.2,17.2,8.5z M8,5.8C8,5.8,8,5.9,8,5.8L8,5.8l0,2L13,5c0.1-0.1,0.2-0.1,0.3-0.1s0.2,0,0.3,0.1l4.1,2.3
					c0,0,0.1,0.1,0.1,0.1l0,0c0-0.2,0-0.4,0-0.7c0-2.1-1.7-3.8-3.9-3.8c-0.7,0-1.3,0.2-1.9,0.5L8,5.8z M9.1,1.3
					C7,1.3,5.3,3.1,5.3,5.2v4.8c0,0,0,0,0,0L7,11V5.2v0C7,5,7.2,4.8,7.4,4.6l4.1-2.3c0,0,0.1-0.1,0.1-0.1C10.9,1.6,10,1.3,9.1,1.3z
					 M8,11.5l2.2,1.3l2.2-1.3V8.9l-2.2-1.3L8,8.9V11.5z"/>
			</g>
		</g>
	</g>
</g>
</svg>
